dist/img/svg/air-purification/propeller.svg

<svg width="17" height="17" viewBox="0 0 17 17" fill="none" xmlns="http://www.w3.org/2000/svg">
<path d="M0.171145 7.03838C0.269228 7.04211 0.351785 6.96708 0.356109 6.86922C0.406126 5.74577 1.04418 4.74691 1.90767 4.44036C2.67153 4.16927 3.49851 4.47749 4.23674 5.30814C4.74119 5.87465 5.35755 6.95237 6.23604 7.53366C6.31764 7.58759 6.4276 7.56529 6.48155 7.48364C6.53553 7.40205 6.5132 7.29207 6.43153 7.23807C5.61734 6.69921 5.01693 5.65174 4.50142 5.0725C3.36754 3.79684 2.31596 3.91938 1.78914 4.10637C0.793281 4.46001 0.058352 5.58959 0.0021326 6.85348C-0.00222742 6.95123 0.0733817 7.03406 0.171145 7.03838Z" fill="#78C081"/>
<path d="M6.38489 9.82759C4.77675 10.6866 2.91328 10.5887 1.63715 9.57915C1.56033 9.51815 1.44892 9.53173 1.38834 9.60823C1.32762 9.685 1.34059 9.79646 1.41741 9.85713C2.17814 10.4591 3.12831 10.7643 4.11704 10.7643C4.93034 10.7643 5.7698 10.5578 6.55163 10.1404C6.63795 10.0942 6.67066 9.98692 6.62447 9.90057C6.57846 9.81419 6.4707 9.78139 6.38489 9.82759Z" fill="#78C081"/>
<path d="M0.411867 8.25142C0.323107 8.29284 0.284894 8.39825 0.326226 8.48686C0.429165 8.7071 0.557378 8.9228 0.696969 9.11069C0.755138 9.18895 0.866018 9.20575 0.944888 9.14725C1.02344 9.08897 1.03971 8.97803 0.981399 8.89952C0.855809 8.73048 0.740215 8.53593 0.647308 8.33688C0.606012 8.24848 0.500449 8.21025 0.411867 8.25142Z" fill="#78C081"/>
<path d="M8.9126 16.4468C10.7993 15.2349 11.3233 12.6489 10.1316 10.4316C10.0853 10.3453 9.97765 10.3131 9.89165 10.3594C9.80548 10.4058 9.77315 10.5133 9.81952 10.5995C10.9228 12.6521 10.4507 15.0377 8.72143 16.1485C7.27628 17.0745 5.48562 16.6144 4.72024 15.6034C4.06507 14.7381 4.28548 13.6779 5.31002 12.7673C5.8631 12.2746 6.88565 11.6863 7.47851 10.8502C7.53508 10.7703 7.5164 10.6597 7.43647 10.603C7.35689 10.5464 7.24597 10.5653 7.18958 10.6451C6.63777 11.4234 5.6333 12.0047 5.07454 12.5024C3.6877 13.735 3.8363 15.023 4.43769 15.8174C5.34011 17.0091 7.35706 17.4438 8.9126 16.4468Z" fill="#78C081"/>
<path d="M15.6037 12.2821C14.7378 12.9383 13.6772 12.7178 12.766 11.693C12.2659 11.1289 11.6552 10.0649 10.7892 9.48059C10.7077 9.42591 10.598 9.44719 10.5432 9.52845C10.4885 9.60961 10.51 9.71977 10.5909 9.77444C11.3936 10.3159 11.994 11.3564 12.5011 11.9284C13.6491 13.2197 14.9282 13.2387 15.8177 12.5646C16.9539 11.7033 17.4777 9.7003 16.4462 8.09125C15.2262 6.1882 12.5406 5.67657 10.3317 6.92689C10.2464 6.97507 10.2165 7.08314 10.2648 7.16837C10.3129 7.2535 10.4212 7.28371 10.5061 7.23524C12.5511 6.07815 15.0293 6.53769 16.148 8.28247C17.0736 9.72654 16.6139 11.5164 15.6037 12.2821Z" fill="#78C081"/>
<path d="M8.09147 0.554373C6.19805 1.76994 5.68264 4.4499 6.9183 6.6556C6.96594 6.74101 7.07384 6.77129 7.15949 6.7236C7.24477 6.67574 7.27522 6.56777 7.2273 6.48236C6.08316 4.43997 6.54685 1.96714 8.28263 0.852698C9.72778 -0.0731935 11.5184 0.386313 12.2836 1.39694C12.939 2.2621 12.7186 3.32265 11.694 4.23393C11.1275 4.73847 9.99594 5.3871 9.42932 6.29437C9.37742 6.37734 9.40266 6.48672 9.48554 6.53856C9.56859 6.59057 9.67777 6.56522 9.72966 6.48215C10.256 5.63954 11.3402 5.02357 11.9295 4.49872C13.3163 3.26528 13.1677 1.97711 12.5662 1.1829C11.7051 0.046186 9.70148 -0.477637 8.09147 0.554373Z" fill="#78C081"/>
<path d="M8.47378 10.4971C9.5326 10.4971 10.394 9.63546 10.394 8.57647C10.394 7.51741 9.53263 6.65576 8.47378 6.65576C7.41515 6.65576 6.55371 7.51737 6.55371 8.57647C6.55375 9.63546 7.41515 10.4971 8.47378 10.4971ZM8.47378 7.01021C9.33728 7.01021 10.0397 7.71288 10.0397 8.57651C10.0397 9.44014 9.33728 10.1427 8.47378 10.1427C7.61047 10.1427 6.90804 9.4401 6.90804 8.57651C6.90804 7.71291 7.61047 7.01021 8.47378 7.01021Z" fill="#78C081"/>
</svg>

<svg width="17" height="17" fill="none" xmlns="http://www.w3.org/2000/svg"><path d="M.171 7.038a.177.177 0 00.185-.169c.05-1.123.688-2.122 1.552-2.429.764-.27 1.59.037 2.329.868.504.567 1.12 1.644 1.999 2.226a.177.177 0 10.196-.296c-.815-.539-1.415-1.586-1.93-2.166-1.134-1.275-2.186-1.153-2.713-.966C.793 4.46.06 5.59.002 6.853a.177.177 0 00.17.185zm6.214 2.79c-1.608.859-3.472.76-4.748-.249a.177.177 0 10-.22.278c.761.602 1.711.907 2.7.907a5.18 5.18 0 002.435-.624.177.177 0 00-.167-.312zM.412 8.251a.177.177 0 00-.086.236c.103.22.231.436.371.624A.177.177 0 00.981 8.9a3.295 3.295 0 01-.334-.563.177.177 0 00-.235-.086zm8.501 8.196c1.886-1.212 2.41-3.798 1.219-6.015a.177.177 0 10-.312.168c1.103 2.052.63 4.438-1.099 5.548-1.445.927-3.235.466-4-.545-.656-.865-.436-1.925.589-2.836.553-.492 1.576-1.08 2.169-1.917a.177.177 0 00-.29-.205c-.551.778-1.556 1.36-2.114 1.857-1.387 1.233-1.239 2.521-.637 3.315.902 1.192 2.92 1.627 4.475.63zm6.691-4.165c-.866.656-1.927.436-2.838-.589-.5-.564-1.11-1.628-1.977-2.212a.177.177 0 10-.198.293c.803.542 1.403 1.582 1.91 2.154 1.148 1.292 2.427 1.31 3.317.637 1.136-.862 1.66-2.865.628-4.474-1.22-1.903-3.905-2.414-6.114-1.164a.177.177 0 10.174.308c2.045-1.157 4.523-.697 5.642 1.047.926 1.445.466 3.234-.544 4zM8.091.554C6.198 1.77 5.683 4.45 6.918 6.656a.177.177 0 10.31-.174C6.082 4.44 6.546 1.967 8.282.852c1.445-.925 3.235-.466 4 .545.656.865.436 1.926-.589 2.837-.567.504-1.698 1.153-2.265 2.06a.177.177 0 10.3.188c.527-.842 1.611-1.458 2.2-1.983 1.387-1.234 1.239-2.522.637-3.316C11.705.046 9.7-.477 8.09.554z" fill="#78C081"/><path d="M8.474 10.497c1.059 0 1.92-.862 1.92-1.92 0-1.06-.861-1.921-1.92-1.921s-1.92.861-1.92 1.92c0 1.06.861 1.921 1.92 1.921zm0-3.487a1.568 1.568 0 010 3.132 1.568 1.568 0 01-1.566-1.565c0-.864.702-1.567 1.566-1.567z" fill="#78C081"/></svg>
